src/assets/support-dashboard.svg

<svg xmlns="http://www.w3.org/2000/svg" width="50" height="50" viewBox="0 0 50 50">
  <g fill="#010400">
    <path d="M12.4450292 3.62729045C11.9809942 3.23089669 11.2960039 3.23625731 10.8382066 3.63976608L7.49054581 6.63557505 7.49054581 6.24298246C7.49054581 5.78362573 7.11822612 5.41130604 6.6588694 5.41130604 6.19951267 5.41130604 5.82719298 5.78362573 5.82719298 6.24298246L5.82719298 8.1251462 4.44064327 9.36608187C4.10350877 9.67358674 4.07709552 10.1953216 4.38148148 10.5353801 4.68586745 10.8754386 5.20730994 10.9066277 5.55009747 10.6053606L11.6490253 5.1460039 17.7479532 10.6053606C17.9688109 10.8068226 18.2808967 10.874269 18.5652047 10.7819688 18.8496101 10.6896686 19.0624756 10.4518519 19.1229045 10.1589669 19.1833333 9.86617934 19.0819688 9.56345029 18.8574074 9.36608187L12.4450292 3.62729045zM16.6393762 11.6491228C16.1800195 11.6491228 15.8076998 12.0214425 15.8076998 12.4807992L15.8076998 18.302729 7.49054581 18.302729 7.49054581 12.4807992C7.49054581 12.0214425 7.11822612 11.6491228 6.6588694 11.6491228 6.19951267 11.6491228 5.82719298 12.0214425 5.82719298 12.4807992L5.82719298 18.8308967C5.83538012 19.4658869 6.35662768 19.9740741 6.99161793 19.9661793L16.3067251 19.9661793C16.9421053 19.9726121 17.4628655 19.4637427 17.4711501 18.8283626L17.4711501 12.4807992C17.4711501 12.0214425 17.0986355 11.6491228 16.6393762 11.6491228zM11.6491228 21.6296296C8.4337232 21.6296296 5.82719298 24.2362573 5.82719298 27.4515595 5.82719298 30.6668616 8.43382066 33.2734893 11.6491228 33.2734893 14.864425 33.2734893 17.4710526 30.6668616 17.4710526 27.4515595 17.4673489 24.2377193 14.862963 21.6332359 11.6491228 21.6296296zM7.49054581 27.4515595C7.49307992 25.4761209 8.88245614 23.7740741 10.8173489 23.3762183L10.8173489 26.9800195 7.74005848 28.8255361C7.57894737 28.3851852 7.49454191 27.9204678 7.49054581 27.4515595zM8.59717349 30.2516569L11.5201754 28.4978558 13.9387914 30.9164717C12.2396686 32.05 9.9665692 31.7670565 8.59717349 30.2516569zM15.1148148 29.7404483L12.4807992 27.1072125 12.4807992 23.3762183C13.8347953 23.6505848 14.9636452 24.5806043 15.4920078 25.857115 16.0202729 27.1336257 15.8789474 28.5893762 15.1148148 29.7404483zM44.9174464 14.9759259L44.9174464 12.1289474C44.9169591 11.4047758 44.3300195 10.8178363 43.605848 10.8173489L41.2387914 10.8173489C40.5146199 10.8178363 39.9276803 11.4047758 39.927193 12.1289474L39.927193 14.9759259 38.2637427 14.9759259 38.2637427 9.76111111C38.2628655 8.9668616 37.6192008 8.32319688 36.8248538 8.32222222L34.7122807 8.32222222C33.9181287 8.32319688 33.2744639 8.9668616 33.2734893 9.76111111L33.2734893 14.9759259 31.6101365 14.9759259 31.6101365 5.82709552C31.6101365 4.90838207 30.8653996 4.16364522 29.9466862 4.16364522L28.2832359 4.16364522C27.3645224 4.16364522 26.6197856 4.90838207 26.6197856 5.82709552L26.6197856 14.9759259 25.7881092 14.9759259C25.3287524 14.9759259 24.9564327 14.6035088 24.9564327 14.1442495L24.9564327 4.16374269C24.9564327 3.70438596 24.5840156 3.33206628 24.1247563 3.33206628 23.6654971 3.33206628 23.2930799 3.70438596 23.2930799 4.16374269L23.2930799 14.1442495C23.2930799 15.5222222 24.4101365 16.6393762 25.7882066 16.6393762L44.9175439 16.6393762C45.3769006 16.6393762 45.7492203 16.2670565 45.7492203 15.8076998 45.7492203 15.3483431 45.3768031 14.9759259 44.9174464 14.9759259zM29.9466862 14.9759259L28.2832359 14.9759259 28.2832359 5.82709552 29.9466862 5.82709552 29.9466862 14.9759259zM36.6003899 14.9759259L34.9369396 14.9759259 34.9369396 9.98567251 36.6003899 9.98567251 36.6003899 14.9759259zM43.2539961 14.9759259L41.5906433 14.9759259 41.5906433 12.4807992 43.2540936 12.4807992 43.2540936 14.9759259 43.2539961 14.9759259zM44.9174464 31.6101365L25.7881092 31.6101365C25.3287524 31.6101365 24.9564327 31.2378168 24.9564327 30.77846L24.9564327 29.4593567 27.6952242 26.7205653C28.0237817 26.4051657 28.5426901 26.4051657 28.8712476 26.7205653L29.8460039 27.6953216C30.8203704 28.6693957 32.3998051 28.6693957 33.3740741 27.6953216L36.8439571 24.2254386C37.1725146 23.910039 37.691423 23.910039 38.0199805 24.2254386L38.9947368 25.2010721C39.9701754 26.1724172 41.5473684 26.1724172 42.522807 25.2010721L45.5053606 22.2185185C45.8205653 21.8922027 45.8160819 21.3733918 45.4952242 21.0526316 45.1743665 20.7317739 44.655653 20.7272904 44.3293372 21.0424951L41.3467836 24.0241715C41.0220273 24.3488304 40.4955166 24.3488304 40.1707602 24.0241715L39.1960039 23.0494152C38.2086745 22.107115 36.6551657 22.107115 35.6679337 23.0494152L32.1980507 26.5192982C31.8732943 26.8439571 31.3467836 26.8439571 31.0220273 26.5192982L30.0481481 25.5445419C29.0606238 24.6021442 27.5067251 24.6021442 26.5192008 25.5445419L24.9564327 27.1073099 24.9564327 20.7979532C24.9564327 20.3385965 24.5840156 19.9662768 24.1247563 19.9662768 23.6654971 19.9662768 23.2930799 20.338694 23.2930799 20.7979532L23.2930799 30.77846C23.2930799 32.1564327 24.4101365 33.2735867 25.7882066 33.2735867L44.9175439 33.2735867C45.3769006 33.2735867 45.7492203 32.9011696 45.7492203 32.4419103 45.7492203 31.9824561 45.3768031 31.6101365 44.9174464 31.6101365z"/>
    <path d="M49.9076998,38.6413255 L49.9076998,4.61695906 C50.0233918,2.19844055 48.1666667,0.139376218 45.7491228,0.00516569201 L4.16374269,0.00516569201 C1.74619883,0.139473684 -0.110526316,2.19853801 0.00516569201,4.61695906 L0.00516569201,38.6413255 C-0.110916179,41.0601365 1.74580897,43.1196881 4.16374269,43.2539961 L17.4710526,43.2539961 L17.4710526,44.9174464 L14.1442495,44.9174464 C12.3069201,44.9174464 10.8174464,46.4069201 10.8174464,48.2442495 L10.8174464,49.0759259 C10.8174464,49.5352827 11.1897661,49.9076023 11.6491228,49.9076023 L38.2638402,49.9076023 C38.7231969,49.9076023 39.0955166,49.5352827 39.0955166,49.0759259 L39.0955166,48.2442495 C39.0955166,46.4069201 37.6060429,44.9174464 35.7687135,44.9174464 L32.4419103,44.9174464 L32.4419103,43.2539961 L45.7492203,43.2539961 C48.1670565,43.1197856 50.0237817,41.0601365 49.9076998,38.6413255 Z M35.768616,46.5808967 C36.6873294,46.5808967 37.4320663,47.3256335 37.4320663,48.244347 L12.4807992,48.244347 C12.4807992,47.3256335 13.2255361,46.5808967 14.1442495,46.5808967 L35.768616,46.5808967 Z M19.1345029,44.9174464 L19.1345029,43.2539961 L30.77846,43.2539961 L30.77846,44.9174464 L19.1345029,44.9174464 Z M45.7491228,41.5906433 L4.16374269,41.5906433 C2.6665692,41.4532164 1.55614035,40.1406433 1.66861598,38.641423 L1.66861598,36.6003899 L48.244347,36.6003899 L48.244347,38.641423 C48.3568226,40.1406433 47.2463938,41.4532164 45.7491228,41.5906433 Z M48.2442495,4.61695906 L48.2442495,34.9369396 L1.66861598,34.9369396 L1.66861598,4.61695906 C1.55614035,3.11783626 2.66666667,1.80555556 4.16374269,1.66851852 L45.7492203,1.66851852 C47.2461988,1.80555556 48.3568226,3.11783626 48.2442495,4.61695906 Z"/>
  </g>
</svg>

<svg xmlns="http://www.w3.org/2000/svg" width="50" height="50"><g fill="#01171A"><path d="M12.445 3.627a1.226 1.226 0 00-1.607.013L7.491 6.636v-.393a.832.832 0 10-1.664 0v1.882L4.441 9.366a.832.832 0 001.11 1.24l6.098-5.46 6.099 5.46a.832.832 0 101.11-1.24l-6.413-5.739zm4.194 8.022a.832.832 0 00-.831.832v5.822H7.49V12.48a.832.832 0 10-1.664 0v6.35a1.15 1.15 0 001.165 1.135h9.315a1.153 1.153 0 001.164-1.138v-6.347a.832.832 0 00-.832-.832zm-4.99 9.98a5.822 5.822 0 105.822 5.823 5.829 5.829 0 00-5.822-5.822zm-4.158 5.823a4.166 4.166 0 013.326-4.076v3.604L7.74 28.826a4.1 4.1 0 01-.25-1.374zm1.106 2.8l2.923-1.754 2.419 2.418a4.119 4.119 0 01-5.342-.664zm6.518-.512l-2.634-2.633v-3.73a4.151 4.151 0 012.634 6.363zm29.802-14.764v-2.847c0-.724-.587-1.311-1.311-1.312h-2.367c-.724 0-1.311.588-1.312 1.312v2.847h-1.663V9.76a1.44 1.44 0 00-1.44-1.439h-2.112a1.44 1.44 0 00-1.439 1.44v5.214H31.61V5.827c0-.919-.745-1.663-1.663-1.663h-1.664c-.918 0-1.663.744-1.663 1.663v9.149h-.832a.832.832 0 01-.832-.832v-9.98a.832.832 0 00-1.663 0v9.98a2.495 2.495 0 002.495 2.495h19.13a.832.832 0 100-1.663zm-14.97 0h-1.664V5.827h1.664v9.149zm6.653 0h-1.663v-4.99H36.6v4.99zm6.654 0h-1.663V12.48h1.663v2.495zm1.663 16.634H25.788a.832.832 0 01-.832-.832V29.46l2.74-2.738a.85.85 0 011.175 0l.975.974a2.495 2.495 0 003.528 0l3.47-3.47a.85.85 0 011.176 0l.975.976a2.5 2.5 0 003.528 0l2.982-2.982a.832.832 0 00-1.176-1.177l-2.982 2.982a.832.832 0 01-1.176 0l-.975-.975a2.555 2.555 0 00-3.528 0l-3.47 3.47a.832.832 0 01-1.176 0l-.974-.974a2.556 2.556 0 00-3.529 0l-1.563 1.562v-6.309a.832.832 0 00-1.663 0v9.98a2.495 2.495 0 002.495 2.496h19.13a.832.832 0 100-1.664z"/><path d="M49.908 38.641V4.617A4.408 4.408 0 0045.749.005H4.164A4.408 4.408 0 00.005 4.617v34.024a4.408 4.408 0 004.159 4.613H17.47v1.663h-3.327a3.327 3.327 0 00-3.327 3.327v.832c0 .46.373.832.832.832h26.615c.46 0 .832-.373.832-.832v-.832a3.327 3.327 0 00-3.327-3.327h-3.327v-1.663h13.307a4.408 4.408 0 004.159-4.613zm-14.14 7.94c.92 0 1.664.745 1.664 1.663H12.481c0-.918.745-1.663 1.663-1.663H35.77zm-16.633-1.664v-1.663h11.643v1.663H19.135zm26.614-3.326H4.164a2.755 2.755 0 01-2.495-2.95v-2.04h46.575v2.04a2.755 2.755 0 01-2.495 2.95zm2.495-36.974v30.32H1.67V4.617a2.754 2.754 0 012.495-2.948h41.585a2.754 2.754 0 012.495 2.948z"/></g></svg>
